X: 35394
T: Rossclogher
R: jig
M: 6/8
K: Gmajor
|:~G3 dBG|AGE G2E|D2E G2A|BeB dBd|
~e3 ede|ged e2g|edB ~d2B|~d2B AGE:|
|:Bdd dBd|edB d2e|dBe dBe|dBG ~A3|
GBd ceg|dfa g2a|b2a ged|edB ~A3:|

